public/images/poses-lg/SupineSpinalTwist.svg

<svg width="800" height="800" fill="none" xmlns="http://www.w3.org/2000/svg"><g clip-path="url(#a)"><path d="M259.421 615.603c36.207 10.127 40.516 12.931 70.497-5.981 0 0-2.427 22.442-5.406 54.273-2.977 31.829-2.573 61.35-2.573 61.35-28.698-4.582-48.541 1.451-79.939 3.755l-87.5-32.5c-17.26-5.103-53.269 2.29-53.269 2.29l40.71-41.354s28.47 20.882 47.877-6.657c19.409-27.539 48.204-41.164 69.603-35.176ZM347.645 713.985c-6.328 3.986-18.072 18.212-15.703 33.729 2.374 15.519 11.888 24.791 30.407 31.575 18.519 6.786 137.807 13.252 205.371 6.463 67.565-6.789 80.008-1.54 103.448 1.576 23.435 3.107 64.195 11.133 72.182 7.122 7.99-4.015 7.593-16.568-.799-21.75-8.393-5.184-63.301-14.427-73.164-22.832-9.857-8.405-321.742-35.883-321.742-35.883Z" fill="#fff" stroke="#000" stroke-width="5" stroke-miterlimit="10"/><path d="M347.645 713.985c-6.328 3.986-18.072 18.212-15.703 33.729 2.374 15.519 11.888 24.791 30.407 31.575 18.519 6.786 137.807 13.252 205.371 6.463 67.565-6.789 80.008-1.54 103.448 1.576 23.435 3.107 64.195 11.133 72.182 7.122 7.99-4.015 7.593-16.568-.799-21.75-8.393-5.184-63.301-14.427-73.164-22.832-9.857-8.405-321.742-35.883-321.742-35.883Z" stroke="#000" stroke-width="5" stroke-miterlimit="10"/><path d="M324.046 669.625c2.397-30.262 5.875-60.003 5.875-60.003s15.771-11.067 39.013-15.421c23.248-4.354 69.55-3.667 80.988 32.843 11.441 36.51-7.453 54.098-13.687 59.853 0 0 69.031-1.947 142.606 20.813 73.576 22.763 58.743 7.43 81.978 11.499 23.231 4.066 40.919 9.313 61.677 11.152 20.763 1.834 37.541 14.572 32.921 26.74-4.616 12.163-84.657-3.65-90.8-4.97-6.147-1.315-35.666 1.449-110.476-.971-74.811-2.419-118.575-6.688-157.777-16.838-39.202-10.147-37.866-7.084-48.72-20.338 0 0-10.243 7.12-13.628 17.746 0 0-2.952-4.28-12.077-6.487 0 .001-.356-24.513 2.107-55.618Z" fill="#fff" stroke="#000" stroke-width="5" stroke-miterlimit="10"/><path d="M324.046 669.625c2.397-30.262 5.875-60.003 5.875-60.003s15.771-11.067 39.013-15.421c23.248-4.354 69.55-3.667 80.988 32.843 11.441 36.51-7.453 54.098-13.687 59.853 0 0 69.031-1.947 142.606 20.813 73.576 22.763 58.743 7.43 81.978 11.499 23.231 4.066 40.919 9.313 61.677 11.152 20.763 1.834 37.541 14.572 32.921 26.74-4.616 12.163-84.657-3.65-90.8-4.97-6.147-1.315-35.666 1.449-110.476-.971-74.811-2.419-118.575-6.688-157.777-16.838-39.202-10.147-37.866-7.084-48.72-20.338 0 0-10.243 7.12-13.628 17.746 0 0-2.952-4.28-12.077-6.487 0 .001-.356-24.513 2.107-55.618Z" stroke="#000" stroke-width="5" stroke-miterlimit="10"/><path d="M569.863 751.611s6.128 17.45 0 33.929M584.151 709.333s3.229 30.711-1.359 42.692M329.918 609.622s-10.368 90.634-7.979 115.622" stroke="#000" stroke-width="5" stroke-miterlimit="10"/><path d="M156 698c1.178-8.789 16.254-20.187 24.725-29.955 8.471-9.769 7.208-14.045 7.208-14.045" fill="#fff"/><path d="M156 698c1.178-8.789 16.254-20.187 24.725-29.955 8.471-9.769 7.208-14.045 7.208-14.045" stroke="#000" stroke-width="5" stroke-miterlimit="10"/><path d="M110.755 693.222c-8.181 4.267-15.906.048-25.96 1.186-15.97 1.812-30.843-18.518-29.105-36.707 2.291-24.018 86.857-21.568 87.774-7.562.541 8.294-6.89 23.054-20.786 33.423-4.47 3.334-11.923 9.66-11.923 9.66Z" fill="#fff" stroke="#000" stroke-width="5" stroke-miterlimit="10"/><path d="M110.755 693.222c-8.181 4.267-15.906.048-25.96 1.186-15.97 1.812-30.843-18.518-29.105-36.707 2.291-24.018 86.857-21.568 87.774-7.562.541 8.294-6.89 23.054-20.786 33.423-4.47 3.334-11.923 9.66-11.923 9.66ZM347.645 713.985c-6.705-17.296-8.167-23.084-1.938-54.942 6.226-31.86 9.458-37.838 9.458-37.838" stroke="#000" stroke-width="5" stroke-miterlimit="10"/><path d="M64.143 650.865c13.353-1.358 26.349 13.577 24.733 21.823-1.616 8.241-1.78 14.061.97 14.871 2.746.807 7.271.159 7.595-2.263.323-2.428-.97-7.759 3.72-8.082 4.685-.323 16.646 6.789 20.041 16.323 3.395 9.536-4.364 22.467-19.071 27.154-14.711 4.688-35.159-7.563-46.069-22.146-5.261-7.031-8.087-16.002-7.847-23.76.395-12.787 2.829-22.587 15.928-23.92Z" fill="#000" stroke="#000" stroke-width="5" stroke-miterlimit="10"/><path d="M82.689 715.982c-8.059-5.7-30.66-14.703-36.21 11.85-3.523 16.854-11.04 41.338-25.803 46.963-14.762 5.62 15.004 27.489 33.1 17.052C71.873 781.41 80.674 760 75.55 742.8c-5.123-17.202 7.139-26.818 7.139-26.818Z" fill="#000" stroke="#000" stroke-width="5" stroke-miterlimit="10"/><path d="M153 725.5c5 4.5 9 11.331 65.568 25.5 35.932 9 53.345 15.213 68.604 18.826 3.481.826 6.634 2.71 9.216 5.498 8.503 9.184 28.498 29.353 31.025 18.763 3.22-13.498 13.15-22.941-26.911-40.079s-81.934-34.728-81.934-34.728-28.919-10.899-52.743-20.3C142 689.578 151.867 724.48 153 725.5Z" fill="#fff" stroke="#000" stroke-width="5" stroke-miterlimit="10"/></g><defs><clipPath id="a"><path fill="#fff" d="M0 0h800v800H0z"/></clipPath></defs></svg>

<svg width="800" height="800" viewBox="0 0 800 800" fill="none" xmlns="http://www.w3.org/2000/svg">
<g clip-path="url(#clip0_298_12126)">
<path d="M259.421 615.603C295.628 625.73 299.937 628.534 329.918 609.622C329.918 609.622 327.491 632.064 324.512 663.895C321.535 695.724 321.939 725.245 321.939 725.245C293.241 720.663 273.398 726.696 242 729L154.5 696.5C137.24 691.397 101.231 698.79 101.231 698.79L141.941 657.436C141.941 657.436 170.411 678.318 189.818 650.779C209.227 623.24 238.022 609.615 259.421 615.603Z" fill="white" stroke="black" stroke-width="5" stroke-miterlimit="10"/>
<path d="M347.645 713.985C341.317 717.971 329.573 732.197 331.942 747.714C334.316 763.233 343.83 772.505 362.349 779.289C380.868 786.075 500.156 792.541 567.72 785.752C635.285 778.963 647.728 784.212 671.168 787.328C694.603 790.435 735.363 798.461 743.35 794.45C751.34 790.435 750.943 777.882 742.551 772.7C734.158 767.516 679.25 758.273 669.387 749.868C659.53 741.463 347.645 713.985 347.645 713.985Z" fill="white" stroke="black" stroke-width="5" stroke-miterlimit="10"/>
<path d="M347.645 713.985C341.317 717.971 329.573 732.197 331.942 747.714C334.316 763.233 343.83 772.505 362.349 779.289C380.868 786.075 500.156 792.541 567.72 785.752C635.285 778.963 647.728 784.212 671.168 787.328C694.603 790.435 735.363 798.461 743.35 794.45C751.34 790.435 750.943 777.882 742.551 772.7C734.158 767.516 679.25 758.273 669.387 749.868C659.53 741.463 347.645 713.985 347.645 713.985Z" stroke="black" stroke-width="5" stroke-miterlimit="10"/>
<path d="M324.046 669.625C326.443 639.363 329.921 609.622 329.921 609.622C329.921 609.622 345.692 598.555 368.934 594.201C392.182 589.847 438.484 590.534 449.922 627.044C461.363 663.554 442.469 681.142 436.235 686.897C436.235 686.897 505.266 684.95 578.841 707.71C652.417 730.473 637.584 715.14 660.819 719.209C684.05 723.275 701.738 728.522 722.496 730.361C743.259 732.195 760.037 744.933 755.417 757.101C750.801 769.264 670.76 753.451 664.617 752.131C658.47 750.816 628.951 753.58 554.141 751.16C479.33 748.741 435.566 744.472 396.364 734.322C357.162 724.175 358.498 727.238 347.644 713.984C347.644 713.984 337.401 721.104 334.016 731.73C334.016 731.73 331.064 727.45 321.939 725.243C321.939 725.244 321.583 700.73 324.046 669.625Z" fill="white" stroke="black" stroke-width="5" stroke-miterlimit="10"/>
<path d="M324.046 669.625C326.443 639.363 329.921 609.622 329.921 609.622C329.921 609.622 345.692 598.555 368.934 594.201C392.182 589.847 438.484 590.534 449.922 627.044C461.363 663.554 442.469 681.142 436.235 686.897C436.235 686.897 505.266 684.95 578.841 707.71C652.417 730.473 637.584 715.14 660.819 719.209C684.05 723.275 701.738 728.522 722.496 730.361C743.259 732.195 760.037 744.933 755.417 757.101C750.801 769.264 670.76 753.451 664.617 752.131C658.47 750.816 628.951 753.58 554.141 751.16C479.33 748.741 435.566 744.472 396.364 734.322C357.162 724.175 358.498 727.238 347.644 713.984C347.644 713.984 337.401 721.104 334.016 731.73C334.016 731.73 331.064 727.45 321.939 725.243C321.939 725.244 321.583 700.73 324.046 669.625Z" stroke="black" stroke-width="5" stroke-miterlimit="10"/>
<path d="M569.863 751.611C569.863 751.611 575.991 769.061 569.863 785.54" stroke="black" stroke-width="5" stroke-miterlimit="10"/>
<path d="M584.151 709.333C584.151 709.333 587.38 740.044 582.792 752.025" stroke="black" stroke-width="5" stroke-miterlimit="10"/>
<path d="M329.918 609.622C329.918 609.622 319.55 700.256 321.939 725.244" stroke="black" stroke-width="5" stroke-miterlimit="10"/>
<path d="M156 698C157.178 689.211 172.254 677.813 180.725 668.045C189.196 658.276 187.933 654 187.933 654" fill="white"/>
<path d="M156 698C157.178 689.211 172.254 677.813 180.725 668.045C189.196 658.276 187.933 654 187.933 654" stroke="black" stroke-width="5" stroke-miterlimit="10"/>
<path d="M110.755 693.222C102.574 697.489 94.849 693.27 84.795 694.408C68.825 696.22 53.952 675.89 55.69 657.701C57.981 633.683 142.547 636.133 143.464 650.139C144.005 658.433 136.574 673.193 122.678 683.562C118.208 686.896 110.755 693.222 110.755 693.222Z" fill="white" stroke="black" stroke-width="5" stroke-miterlimit="10"/>
<path d="M110.755 693.222C102.574 697.489 94.849 693.27 84.795 694.408C68.825 696.22 53.952 675.89 55.69 657.701C57.981 633.683 142.547 636.133 143.464 650.139C144.005 658.433 136.574 673.193 122.678 683.562C118.208 686.896 110.755 693.222 110.755 693.222Z" stroke="black" stroke-width="5" stroke-miterlimit="10"/>
<path d="M347.645 713.985C340.94 696.689 339.478 690.901 345.707 659.043C351.933 627.183 355.165 621.205 355.165 621.205" stroke="black" stroke-width="5" stroke-miterlimit="10"/>
<path d="M64.143 650.865C77.496 649.507 90.492 664.442 88.876 672.688C87.26 680.929 87.096 686.749 89.846 687.559C92.592 688.366 97.117 687.718 97.441 685.296C97.764 682.868 96.471 677.537 101.161 677.214C105.846 676.891 117.807 684.003 121.202 693.537C124.597 703.073 116.838 716.004 102.131 720.691C87.42 725.379 66.972 713.128 56.062 698.545C50.801 691.514 47.975 682.543 48.215 674.785C48.61 661.998 51.044 652.198 64.143 650.865Z" fill="black" stroke="black" stroke-width="5" stroke-miterlimit="10"/>
<path d="M82.6887 715.982C74.6302 710.282 52.0291 701.279 46.4795 727.832C42.9563 744.686 35.4382 769.17 20.6755 774.795C5.91364 780.415 35.6802 802.284 53.7764 791.847C71.8728 781.41 80.6743 760 75.5504 742.8C70.4272 725.598 82.6887 715.982 82.6887 715.982Z" fill="black" stroke="black" stroke-width="5" stroke-miterlimit="10"/>
<path d="M153 725.5C158 730 162 736.831 218.568 751C254.5 760 271.913 766.213 287.172 769.826C290.653 770.652 293.806 772.536 296.388 775.324C304.891 784.508 324.886 804.677 327.413 794.087C330.633 780.589 340.563 771.146 300.502 754.008C260.441 736.87 218.568 719.28 218.568 719.28C218.568 719.28 189.649 708.381 165.825 698.98C142 689.578 151.867 724.48 153 725.5Z" fill="white" stroke="black" stroke-width="5" stroke-miterlimit="10"/>
</g>
<defs>
<clipPath id="clip0_298_12126">
<rect width="800" height="800" fill="white"/>
</clipPath>
</defs>
</svg>
